src/resources/svg/fiat-icon.svg

<svg fill="none" height="24" viewBox="0 0 24 24" width="24" xmlns="http://www.w3.org/2000/svg" xmlns:xlink="http://www.w3.org/1999/xlink"><linearGradient id="a" gradientUnits="userSpaceOnUse" x1="20.572" x2="3.429" y1="20.572" y2="3.429"><stop offset="0" stop-color="#ff4c8c"/><stop offset="1" stop-color="#ff7474"/></linearGradient><linearGradient id="b" gradientUnits="userSpaceOnUse" x1="7.817" x2="17.527" y1="7.35" y2="15.019"><stop offset="0" stop-color="#ff7474"/><stop offset="1" stop-color="#ff4c8c"/></linearGradient><path d="m12 23.1429c6.154 0 11.1428-4.9888 11.1428-11.1429 0-6.154-4.9888-11.142822-11.1428-11.142822-6.15404 0-11.14286 4.988822-11.14286 11.142822 0 6.1541 4.98882 11.1429 11.14286 11.1429z" stroke="url(#a)" stroke-width="1.714"/><path clip-rule="evenodd" d="m14.5169 7.48634c-.2504-.14493-.5347-.22096-.824-.22036h-2.1858v4.00322h4.8523v.5065h-8.71978v-.5073h1.61802v-2.06408c0-.45219-.03631-.79295-.1074-1.01713-.0711-.22419-.18787-.40289-.34785-.53514-.16155-.13086-.39561-.24891-.70216-.35415l-.46061-.15787v-.28285h8.72038v3.24632h-.3107c-.0697-.37269-.1773-.73733-.3211-1.08819-.1318-.32649-.3066-.63401-.5195-.91451-.204-.26184-.4346-.46666-.6918-.61446zm-6.87725 5.81576v-.5073h8.71945v.5076h-4.8529v2.0641c-.0021.2663.0158.5323.0537.796.0358.2365.1001.4202.193.5514.0901.129.2049.2388.3378.3231.1311.0844.3223.1632.5733.2367l.5669.1578v.2828h-5.59125v-.2828l.4606-.1578c.21787-.0725.42648-.1702.62153-.2913.17143-.1107.30368-.2769.39657-.4969.09288-.2206.13932-.5936.13932-1.1192v-2.0642z" fill="url(#b)" fill-rule="evenodd"/></svg>

<svg width="24" height="24" viewBox="0 0 24 24" fill="none" xmlns="http://www.w3.org/2000/svg">
<path d="M12 23.1429C18.154 23.1429 23.1428 18.1541 23.1428 12C23.1428 5.846 18.154 0.857178 12 0.857178C5.84596 0.857178 0.85714 5.846 0.85714 12C0.85714 18.1541 5.84596 23.1429 12 23.1429Z" stroke="url(#paint0_linear_519_3782)" stroke-width="1.71428"/>
<path fill-rule="evenodd" clip-rule="evenodd" d="M14.5169 7.48634C14.2665 7.34141 13.9822 7.26538 13.6929 7.26598H11.5071V11.2692H16.3594V11.7757H7.63962V11.2684H9.25764V9.20432C9.25764 8.75213 9.22133 8.41137 9.15024 8.18719C9.07914 7.963 8.96237 7.7843 8.80239 7.65205C8.64084 7.52119 8.40678 7.40314 8.10023 7.2979L7.63962 7.14003V6.85718H16.36V10.1035H16.0493C15.9796 9.73081 15.872 9.36617 15.7282 9.01531C15.5964 8.68882 15.4216 8.3813 15.2087 8.1008C15.0047 7.83896 14.7741 7.63414 14.5169 7.48634ZM7.63965 13.3021V12.7948H16.3591V13.3024H11.5062V15.3665C11.5041 15.6328 11.522 15.8988 11.5599 16.1625C11.5957 16.399 11.66 16.5827 11.7529 16.7139C11.843 16.8429 11.9578 16.9527 12.0907 17.037C12.2218 17.1214 12.413 17.2002 12.664 17.2737L13.2309 17.4315V17.7143H7.63965V17.4315L8.10025 17.2737C8.31812 17.2012 8.52673 17.1035 8.72178 16.9824C8.89321 16.8717 9.02546 16.7055 9.11835 16.4855C9.21123 16.2649 9.25767 15.8919 9.25767 15.3663V13.3021H7.63965Z" fill="url(#paint1_linear_519_3782)"/>
<defs>
<linearGradient id="paint0_linear_519_3782" x1="20.5715" y1="20.5715" x2="3.42856" y2="3.4286" gradientUnits="userSpaceOnUse">
<stop stop-color="#FF4C8C"/>
<stop offset="1" stop-color="#FF7474"/>
</linearGradient>
<linearGradient id="paint1_linear_519_3782" x1="7.81717" y1="7.34995" x2="17.5268" y2="15.0186" gradientUnits="userSpaceOnUse">
<stop stop-color="#FF7474"/>
<stop offset="1" stop-color="#FF4C8C"/>
</linearGradient>
</defs>
</svg>
